images/svg/logo.svg

<svg width="140" height="70" viewBox="0 0 140 70" fill="none" xmlns="http://www.w3.org/2000/svg">
<g clip-path="url(#clip0_101609_129)">
<path d="M140 0H0L60.3623 65.7C65.6377 71.5 74.3623 71.5 79.6377 65.7L140 0Z" fill="#81B3D3"/>
<path d="M37.2318 0.5L69.797 38.4L102.261 0.7L37.2318 0.5Z" fill="#23A9E1"/>
<path d="M61.9856 14.7H79.5363C78.2175 13.9 75.0725 10.1 73.4494 11.5C73.3479 11.6 68.4783 5.80001 65.3334 8.60001C62.5943 11.1 61.2754 8.30001 58.232 10.2C54.5798 12.6 60.2609 13.9 61.9856 14.7ZM89.0725 11.2L79.1305 11.3C83.087 6.80001 84.8117 7.30001 89.0725 11.2Z" fill="white"/>
<path d="M99.0145 3.6V1.2H101.145L99.0145 3.6ZM49.1014 13C49.2029 13.1 51.5362 10.6 55.2898 8.1C58.7391 5.8 64.0145 3.2 69.8985 3.2C75.7826 3.2 81.1594 5.9 84.6087 8.2C88.3623 10.6 90.6956 13 90.7971 13.1L88.2609 16.1C83.6956 16.7 80.4493 20 75.9855 19.3C73.7536 18.9 73.6522 17.7 73.0435 16.4C72.5362 15.4 71.7246 15.6 70.7101 15.2C69.7971 14.8 69.1884 14.1 67.2609 14.5C65.6377 14.9 65.4348 17.4 63.3043 17.3C62.1884 17.2 62.0869 15.7 60.4638 13.7C56.3043 8.8 52.5107 9.41045 49.873 13.9104L49.1014 13ZM40.5797 1.2V3.1L38.9565 1.2H40.5797ZM95.2609 1.2H98.5072V4.2L95.2609 8V1.2ZM91.1014 12.6V1.2H94.6522V8.6L91.1014 12.6ZM90.5942 2.2V12.1C89.4783 11 88.2609 10 86.942 9.1L90.5942 2.2ZM86.4348 1.9V8.7C85.9275 8.4 85.5217 8 84.913 7.7C84.2029 7.3 83.4927 6.8 82.6812 6.4L86.4348 1.9ZM81.971 1.7V6C80.9565 5.5 79.8406 5 78.8261 4.5L81.971 1.7ZM82.5797 1.2H86.3333L82.5797 5.8V1.2ZM86.942 1.2H90.5942L86.942 8.3V1.2ZM78.0145 1.2H81.971L78.4203 4.3C78.3188 4.3 78.2174 4.2 78.1159 4.2L78.0145 1.2ZM77.5072 1.6V4C76.4927 3.6 75.4783 3.3 74.3623 3.1L77.5072 1.6ZM73.2464 1.6V2.9C72.5362 2.8 71.8261 2.7 71.0145 2.6L73.2464 1.6ZM66.3478 1.6L68.5797 2.6C67.7681 2.6 67.058 2.7 66.3478 2.9V1.6ZM62.1884 1.6L65.3333 3.1C64.2174 3.3 63.2029 3.6 62.1884 4V1.6ZM65.8406 2.8L62.4927 1.2H65.8406V2.8ZM69.3913 2.4L66.5507 1.1H69.3913V2.4ZM70.1014 1.2H73.0435L70.1014 2.5V1.2ZM73.8551 1.2H77.1014L73.8551 2.8V1.2ZM61.2754 4.3L57.7246 1.2H61.6812V4.2L61.2754 4.3ZM57.6232 1.7L60.7681 4.4C59.6522 4.8 58.6377 5.3 57.6232 5.9V1.7ZM53.2609 1.9L56.913 6.4C55.5942 7.1 54.3768 7.9 53.2609 8.8V1.9ZM49 2.2L52.6522 9.2C51.3333 10.2 50.1159 11.2 49 12.4V2.2ZM52.7536 8.2L49.1014 1.1H52.7536V8.2ZM57.1159 5.7L53.3623 1.1H57.1159V5.7ZM44.3333 7.5L41.0869 3.7V1.2H44.3333V7.5ZM44.942 1.2H48.4927V12.4L44.942 8.2V1.2ZM36.5217 0V14.6L70 54.5L103.478 15V0H36.5217Z" fill="#491213"/>
<path d="M67.3623 46L70 41.8L72.6376 46L70 50.2L67.3623 46Z" fill="#23A9E1"/>
<path d="M75.2753 30.6C71.826 28.6 72.6376 27.1 75.4782 25.7C76.9999 25 80.3478 22.3 81.6666 23.2L75.2753 30.6ZM72.942 33.1C70.913 33 68.5796 32.7 66.5507 33.2C67.768 33.5 70.8115 34.4 67.9709 35.1C68.9854 36.5 70.6086 36.4 71.6231 35.2C71.2173 35 70.913 34.7 70.6086 34.5C71.7246 34.2 72.7391 33.6 72.942 33.1ZM74.1593 31.5C73.2463 30.7 72.2318 30.7 71.4202 31.5C70.2028 29.4 65.942 30.1 63.913 29.8C65.0289 32.4 73.6521 32.9 74.1593 31.5ZM67.2608 29.3C65.6376 28.8 60.3622 28.9 63.8115 27.5C64.9275 27.1 70.6086 27.6 67.2608 29.3ZM69.2898 26.3C68.7825 25.2 69.6956 23.9 71.0144 24.9C72.2318 25.7 70.4057 26.9 69.2898 26.3ZM66.3478 26.4C64.0144 27.1 60.9709 25.6 64.7246 24.9C67.0579 24.4 69.4927 25.4 66.3478 26.4C66.4492 26.4 66.2463 26.4 66.3478 26.4ZM63.7101 20.2C63.2028 21.8 62.1883 22.1 62.2898 20.2C62.3912 17.9 63.913 18.5 65.5362 17.6C66.855 16.9 67.5651 14.2 69.8985 15.8C70.913 16.5 72.1304 15.9 72.4347 17C72.4347 16.9 69.4927 23.7 71.1159 23.7C67.8695 23.7 69.2898 19.9 70.5072 17.3C69.2898 17.9 67.3622 21.6 68.9854 22.3C68.1738 23.4 65.5362 24.9 64.2173 23.8C63.1014 22.8 63.7101 21.5 63.7101 20.2ZM59.6521 23C53.9709 23 57.826 14.4 59.7536 14.9C61.9854 15.6 61.6811 23.1 59.6521 23ZM53.3622 14.8C50.7246 14.7 51.8405 12.2 53.6666 11.7C55.3912 11.2 58.942 12.8 60.1593 13.9C58.3333 14.5 55.9999 14.4 53.9709 14.5C53.768 12.5 53.2608 13.2 53.3622 14.8Z" fill="#DC6243"/>
<path d="M72.8406 25.8C69.8986 22.8 77.203 23.1 78.4203 22C79.2319 22.3 85.5218 16.6 87.0435 17C85.9276 18.3 83.5943 22.3 81.9711 22.3C80.6522 22.3 79.3334 22.1 78.3189 23C76.7971 24.4 74.3624 25.1 72.8406 25.8Z" fill="#F49774"/>
<path d="M73.7537 22.2C72.1305 23.1 70.6088 19.7 73.4494 20C75.2754 20.2 77.203 19.8 78.9276 20.1C77.6088 21.6 75.7827 22.4 73.7537 22.2Z" fill="#F4B1A4"/>
<path d="M51.8406 20.9C52.145 21.3 52.4493 21.7 52.3479 22.3C52.3479 22.7 51.7392 23.3 52.145 23.5L53.6667 21.7C53.2609 21.6 50.116 17.9 50.116 17.5L47.9856 18.6C48.087 19 48.7971 18.6 49.2029 18.6C49.7102 18.6 50.116 19 50.5218 19.3C49.4058 20.2 46.6667 22.6 46.3624 22.6C46.2609 22.6 45.6522 22.2 45.6522 22.6C45.6522 22.8 46.2609 23.3 46.3624 23.4L47.7827 25.1C48.1885 24.9 47.6812 24.6 47.8841 24.3C47.9856 24.1 51.1305 21.6 51.8406 20.9ZM48.3914 16.4C48.6957 16.3 48.7971 16.7 49 16.4L47.3769 14.5C47.174 14.2 46.8696 13.9 46.8696 14.5C46.9711 14.9 42.8116 18.2 42.6087 18.3C42.3044 18.4 42.1015 18 41.8986 18.4C42.4058 19 42.8116 19.5 43.3189 20.1C43.5218 20.3 43.6232 20.5 43.8261 20.7C44.029 20.9 43.9276 20.3 43.9276 20.3C43.8261 20 44.2319 19.7 44.5363 19.5C45.5508 18.5 48.087 16.4 48.3914 16.4ZM42.6087 15.8C41.4928 16.1 40.174 15.7 39.8696 14.5C39.4638 13.3 40.2754 12.1 41.1884 11.4C42.1015 10.7 43.5218 10.8 44.029 11.9C44.2319 12.4 44.1305 13 43.9276 13.5C43.8261 13.8 43.5218 14.1 43.9276 14.3C44.5363 13.6 45.0435 12.9 45.6522 12.2C44.9421 11.8 44.6377 11.1 44.1305 10.5C43.5218 9.79999 42.8116 9.09999 41.7971 8.99999C39.8696 8.69999 38.145 10.7 37.9421 12.4C37.8406 13.3 38.145 14.2 38.7537 15C39.2609 15.6 39.9711 16.1 40.3769 16.8C40.5798 16.9 42.2029 16.1 42.5073 16C42.7102 16 42.6087 15.9 42.6087 15.8C42.6087 15.8 42.1015 16 42.6087 15.8ZM68.4783 39.4C67.7682 38.9 65.8406 36.4 65.4348 35.9L65.2319 35.6L65.029 35.7C64.9276 35.8 65.1305 36.1 65.029 36.3C64.5218 37.1 61.2754 39.5 61.0725 39.7C60.6667 39.9 60.2609 39.6 60.058 39.9C60.5653 40.5 61.8841 42.2 62.087 42.2C62.3913 42.2 62.1884 41.7 62.1884 41.6C62.2899 41.4 63.9131 40 64.5218 39.5C64.7247 39.3 64.9276 39.8 65.1305 40C65.3334 40.3 65.4348 40.7 65.3334 41C65.2319 41.2 64.8261 41.6 65.1305 41.8C65.5363 41.3 66.6522 40 66.8551 39.8C67.058 39.6 66.4493 39.8 66.5508 39.7C66.3479 39.8 66.0435 39.9 65.8406 39.7C65.7392 39.7 65.1305 39 65.2319 38.9C65.5363 38.7 65.8406 38.3 66.2464 38.2C66.8551 38.1 67.2609 39.2 67.3624 39.6C67.4638 40 67.4638 40.4 67.2609 40.7C67.1595 41 66.9566 41.2 67.2609 41.3L68.6812 39.4C68.6812 39.5 68.5798 39.5 68.4783 39.4C68.5798 39.5 68.3769 39.4 68.4783 39.4ZM59.145 30.5C58.4348 30.5 57.7247 30.8 57.116 31.3C55.6957 32.5 55.4928 34.6 56.6087 36.1C57.9276 37.8 60.058 38 61.7827 36.8C63.2029 35.6 63.4058 33.5 62.2899 32C61.4783 31 60.2609 30.5 59.145 30.5ZM60.3624 31.9C61.2754 31.8 61.8841 32.7 61.4783 33.7C61.0725 34.7 60.058 35.7 59.0435 36.1C57.8261 36.6 57.0145 35.6 57.5218 34.4C57.9276 33.4 58.9421 32.4 59.9566 32C60.058 32 60.1595 31.9 60.3624 31.9ZM57.5218 27.3C57.8261 27.3 58.1305 27.7 58.3334 27.3L56.9131 25.6C56.5073 25.8 56.9131 26 56.8116 26.2C56.6087 26.5 55.087 26.7 54.6812 26.8C54.7827 26.4 55.2899 25.1 55.4928 25C55.8986 24.7 56.1015 25.3 56.3044 24.9L54.4783 22.8C54.2754 22.6 54.0725 22.1 53.8696 22.4C53.8696 22.4 53.8696 23.4 53.7682 23.5C53.6667 23.7 53.1595 25.9 52.5508 26.4C52.2464 26.7 51.029 27.7 50.7247 27.8C50.4203 27.9 50.2174 27.4 49.9131 27.8L51.5363 29.7C51.6377 29.8 51.9421 30.3 52.0435 30.3C52.3479 30.4 52.0435 29.7 52.145 29.6C52.2464 29.3 53.7682 27.8 54.4783 27.7C55.3913 27.5 56.5073 27.2 57.5218 27.3C57.7247 27.3 57.3189 27.3 57.5218 27.3ZM82.0725 34C82.174 34.4 82.2754 34.9 82.174 35.3C82.0725 35.9 81.5653 37.2 80.7537 36.8C79.9421 36.4 79.3334 35.7 78.6232 35.1C79.1305 34.5 79.6377 34 80.5508 34.3C80.7537 34.4 80.9566 34.3 80.7537 34.1C80.4493 33.9 78.7247 32.8 78.6232 32.9C78.4203 33.1 78.9276 33.5 78.7247 33.9C78.6232 34.2 78.3189 34.4 78.116 34.7C77.6087 34.3 76.8986 33.9 77.4058 33.2C77.8116 32.8 78.2174 32.4 78.8261 32.3C79.2319 32.2 80.0435 32.6 80.145 32.2C79.4348 31.9 78.7247 31.5 78.0145 31.2C78.116 31.7 75.7827 34.1 75.2754 34.7C75.174 34.8 74.8696 35.1 74.8696 35.2C74.8696 35.5 75.2754 35.3 75.2754 35.3C75.5798 35.2 79.7392 38.6 79.8406 38.9C79.9421 39.1 79.7392 39.3 79.8406 39.4C79.8406 39.4 79.9421 39.5 80.0435 39.5C80.3479 39.2 82.9856 35.6 83.5942 35.5C83.087 34.7 82.5798 33.9 82.0725 33.1C81.6667 33.3 81.9711 33.8 82.0725 34ZM78.0145 38.4C76.6957 37.5 74.3624 39.2 73.9566 39.4C73.2464 39.7 72.7392 39 73.145 38.4C73.4493 37.9 74.058 37.6 74.6667 37.6C74.8696 37.6 75.5798 37.7 75.5798 37.6C75.6812 37.5 75.6812 37.5 75.5798 37.4C74.9711 37 74.4638 36.6 73.8551 36.3C73.7537 37 72.9421 37.4 72.5363 37.9C72.029 38.5 71.5218 39.2 71.5218 39.9C71.5218 40.6 71.9276 41.3 72.6377 41.6C73.3479 42 74.1595 41.7 74.8696 41.3C75.2754 41 75.6812 40.7 76.087 40.5C76.6957 40.2 77.6087 40.5 77.4058 41.3C77.2029 42 76.4928 42.6 75.7827 42.8C75.3769 42.9 74.9711 42.9 74.5653 42.7C74.2609 42.6 73.9566 42.2 73.7537 42.6L76.087 44.2C76.1885 43.7 76.3913 43.5 76.7971 43.2C77.3044 42.8 77.7102 42.3 78.116 41.8C78.9276 40.9 79.2319 39.3 78.0145 38.4ZM95.8696 10.3C95.8696 10.4 95.8696 10.4 95.8696 10.3L94.9566 11.3L94.145 12.3C93.9421 12.5 93.8406 12.6 94.145 12.8C94.6522 12.5 97.6957 17.6 97.4928 18.3C96.9856 18.5 92.9276 15 92.8261 14.8C92.8261 14.7 93.029 14.1 92.7247 14.2C92.6232 14.2 92.2174 14.8 92.116 14.9L91.5073 15.6C91.7102 15.9 91.8116 15.6 92.116 15.6C92.3189 15.7 93.3334 16.5 93.6377 16.7C93.1305 16.7 91.9131 16.8 91.7102 16.8C91.1015 16.9 91.4058 16.4 91 16.2L89.4783 18L88.5653 19C88.5653 19 88.5653 19 88.5653 19.1C88.7682 19.3 88.6667 19.2 88.9711 19.1C89.2754 19 93.3334 22.3 93.4348 22.5C93.6377 22.8 93.3334 23.1 93.7392 23.3L94.9566 21.9C95.058 21.8 95.058 21.8 94.9566 21.8C94.6522 21.6 94.6522 21.9 94.2464 21.9C93.9421 21.8 91.3044 19.7 90.3913 18.9L95.7682 18.7C95.9711 18.7 96.4783 19.3 96.4783 19.5C96.3769 19.7 96.174 19.9 96.4783 20C96.7827 19.6 97.087 19.3 97.3913 18.9L97.4928 18.7C97.5942 18.7 97.5942 18.6 97.5942 18.5L97.6957 18.4C98 18.1 98.9131 17.1 98.8116 17C98.5073 16.7 98.4058 17.3 98 17C97.7971 16.8 97.1884 15.8 97.087 15.6C96.8841 15.3 97.4928 15 97.6957 14.9C98.2029 14.6 99.8261 14.1 100.029 15.1C100.029 15.3 99.8261 15.5 99.9276 15.6C99.9276 15.6 100.029 15.8 100.13 15.7L102.261 13.1C102.159 13 102.159 13 102.058 12.9C101.551 13.4 96.4783 11.4 96.174 11.1C96.0725 10.9 96.0725 10.3 95.8696 10.3ZM95.6667 12.9C96.4783 13.2 97.1884 13.5 98 13.9C97.7971 14 97.5942 14.1 97.3913 14.2C97.1885 14.3 96.9856 14.5 96.7827 14.7L95.6667 12.9ZM88.9711 20.6C87.8551 20.5 86.7392 21 85.9276 21.9C84.7102 23.4 84.8116 25.6 86.3334 26.8C87.8551 28 90.087 27.7 91.3044 26.3C92.5218 24.8 92.4203 22.6 90.8986 21.4C90.3913 21 89.6812 20.7 88.9711 20.6ZM87.5508 22.2C88.1595 22.2 88.8696 22.6 89.2754 22.9C90.087 23.4 91.5073 24.6 90.7971 25.6C90.7971 25.5 90.8986 25.5 90.6957 25.7C89.8841 26.5 88.4638 25.8 87.7537 25.2C87.0435 24.7 85.7247 23.5 86.5363 22.5C86.8406 22.3 87.145 22.2 87.5508 22.2ZM84.4058 26.5C83.1884 26.4 81.9711 27 81.058 28.1C80.4493 28.9 79.7392 29.6 79.1305 30.4C79.3334 30.7 79.6377 30.3 79.9421 30.5C80.2464 30.7 84.1015 33.8 84.1015 34C84.2029 34.3 83.8986 34.4 84.2029 34.6C84.3044 34.7 87.145 31.2 87.4493 30.6C87.8551 29.5 87.5508 28.2 86.6377 27.4C86.7392 27.5 86.8406 27.5 86.6377 27.4C85.8261 26.8 85.116 26.5 84.4058 26.5ZM83.2899 28.1C83.3913 28.1 83.4928 28.1 83.5942 28.1C85.0145 28.5 87.0435 30.2 85.7247 31.7C85.5218 31.9 85.7247 31.7 85.3189 32.1C85.116 32.3 81.058 29.1 81.2609 28.9C81.6667 28.4 82.5798 28 83.2899 28.1Z" fill="white"/>
</g>
<defs>
<clipPath id="clip0_101609_129">
<rect width="140" height="70" fill="white"/>
</clipPath>
</defs>
</svg>

<svg xmlns="http://www.w3.org/2000/svg" width="140" height="70" fill="none"><g clip-path="url(#a)"><path fill="#81B3D3" d="M140 0H0l60.362 65.7c5.276 5.8 14 5.8 19.276 0L140 0Z"/><path fill="#23A9E1" d="m37.232.5 32.565 37.9L102.261.7 37.231.5Z"/><path fill="#fff" d="M61.986 14.7h17.55c-1.319-.8-4.463-4.6-6.087-3.2-.101.1-4.97-5.7-8.116-2.9-2.739 2.5-4.058-.3-7.101 1.6-3.652 2.4 2.029 3.7 3.754 4.5Zm27.087-3.5-9.942.1c3.956-4.5 5.68-4 9.942-.1Z"/><path fill="#491213" d="M99.014 3.6V1.2h2.131l-2.13 2.4ZM49.102 13c.102.1 2.435-2.4 6.189-4.9 3.45-2.3 8.724-4.9 14.608-4.9 5.885 0 11.261 2.7 14.71 5 3.754 2.4 6.088 4.8 6.19 4.9l-2.537 3c-4.565.6-7.812 3.9-12.275 3.2-2.232-.4-2.334-1.6-2.943-2.9-.507-1-1.318-.8-2.333-1.2-.913-.4-1.522-1.1-3.45-.7-1.622.4-1.825 2.9-3.956 2.8-1.116-.1-1.217-1.6-2.84-3.6-4.16-4.9-7.953-4.29-10.591.21l-.772-.91ZM40.58 1.2v1.9l-1.623-1.9h1.623Zm54.68 0h3.247v3L95.261 8V1.2Zm-4.159 11.4V1.2h3.551v7.4l-3.55 4Zm-.507-10.4v9.9a26.327 26.327 0 0 0-3.652-3l3.652-6.9Zm-4.16-.3v6.8c-.507-.3-.912-.7-1.521-1-.71-.4-1.42-.9-2.232-1.3l3.754-4.5Zm-4.463-.2V6c-1.014-.5-2.13-1-3.145-1.5l3.145-2.8Zm.609-.5h3.753L82.58 5.8V1.2Zm4.362 0h3.652l-3.652 7.1V1.2Zm-8.927 0h3.956l-3.55 3.1c-.102 0-.204-.1-.305-.1l-.102-3Zm-.508.4V4c-1.014-.4-2.029-.7-3.145-.9l3.145-1.5Zm-4.26 0v1.3c-.71-.1-1.42-.2-2.233-.3l2.232-1Zm-6.9 0 2.233 1c-.812 0-1.522.1-2.232.3V1.6Zm-4.159 0 3.145 1.5c-1.116.2-2.13.5-3.145.9V1.6Zm3.653 1.2-3.348-1.6h3.348v1.6Zm3.55-.4-2.84-1.3h2.84v1.3Zm.71-1.2h2.942l-2.942 1.3V1.2Zm3.754 0h3.246l-3.246 1.6V1.2Zm-12.58 3.1-3.55-3.1h3.956v3l-.406.1Zm-3.652-2.6 3.145 2.7c-1.116.4-2.13.9-3.145 1.5V1.7Zm-4.362.2 3.652 4.5c-1.319.7-2.536 1.5-3.652 2.4V1.9ZM49 2.2l3.652 7c-1.319 1-2.536 2-3.652 3.2V2.2Zm3.754 6L49.1 1.1h3.653v7.1Zm4.362-2.5-3.754-4.6h3.754v4.6ZM44.333 7.5l-3.246-3.8V1.2h3.246v6.3Zm.609-6.3h3.55v11.2l-3.55-4.2v-7ZM36.522 0v14.6L70 54.5 103.478 15V0H36.522Z"/><path fill="#23A9E1" d="M67.362 46 70 41.8l2.638 4.2L70 50.2 67.362 46Z"/><path fill="#DC6243" d="M75.275 30.6c-3.449-2-2.637-3.5.203-4.9 1.522-.7 4.87-3.4 6.189-2.5l-6.392 7.4Zm-2.333 2.5c-2.029-.1-4.362-.4-6.391.1 1.217.3 4.26 1.2 1.42 1.9 1.014 1.4 2.638 1.3 3.652.1-.406-.2-.71-.5-1.014-.7 1.116-.3 2.13-.9 2.333-1.4Zm1.217-1.6c-.913-.8-1.927-.8-2.739 0-1.217-2.1-5.478-1.4-7.507-1.7 1.116 2.6 9.74 3.1 10.246 1.7Zm-6.898-2.2c-1.623-.5-6.899-.4-3.45-1.8 1.116-.4 6.798.1 3.45 1.8Zm2.029-3c-.508-1.1.406-2.4 1.724-1.4 1.218.8-.608 2-1.724 1.4Zm-2.942.1c-2.334.7-5.377-.8-1.623-1.5 2.333-.5 4.768.5 1.623 1.5.101 0-.102 0 0 0Zm-2.638-6.2c-.507 1.6-1.522 1.9-1.42 0 .101-2.3 1.623-1.7 3.246-2.6 1.319-.7 2.03-3.4 4.362-1.8 1.015.7 2.232.1 2.537 1.2 0-.1-2.942 6.7-1.32 6.7-3.245 0-1.825-3.8-.608-6.4-1.217.6-3.145 4.3-1.522 5-.811 1.1-3.449 2.6-4.768 1.5-1.116-1-.507-2.3-.507-3.6ZM59.652 23c-5.681 0-1.826-8.6.102-8.1 2.231.7 1.927 8.2-.102 8.1Zm-6.29-8.2c-2.637-.1-1.522-2.6.305-3.1 1.724-.5 5.275 1.1 6.492 2.2-1.826.6-4.16.5-6.188.6-.203-2-.71-1.3-.609.3Z"/><path fill="#F49774" d="M72.84 25.8c-2.941-3 4.363-2.7 5.58-3.8.812.3 7.102-5.4 8.623-5-1.115 1.3-3.449 5.3-5.072 5.3-1.319 0-2.638-.2-3.652.7-1.522 1.4-3.957 2.1-5.478 2.8Z"/><path fill="#F4B1A4" d="M73.754 22.2c-1.624.9-3.145-2.5-.305-2.2 1.826.2 3.754-.2 5.479.1-1.32 1.5-3.145 2.3-5.174 2.1Z"/><path fill="#fff" d="M51.84 20.9c.305.4.61.8.508 1.4 0 .4-.609 1-.203 1.2l1.522-1.8c-.406-.1-3.551-3.8-3.551-4.2l-2.13 1.1c.101.4.811 0 1.217 0 .507 0 .913.4 1.319.7-1.116.9-3.855 3.3-4.16 3.3-.101 0-.71-.4-.71 0 0 .2.609.7.71.8l1.42 1.7c.407-.2-.1-.5.102-.8.102-.2 3.246-2.7 3.957-3.4Zm-3.449-4.5c.305-.1.406.3.609 0l-1.623-1.9c-.203-.3-.507-.6-.507 0 .101.4-4.058 3.7-4.261 3.8-.305.1-.508-.3-.71.1.507.6.913 1.1 1.42 1.7.203.2.304.4.507.6.203.2.102-.4.102-.4-.102-.3.304-.6.608-.8 1.015-1 3.551-3.1 3.855-3.1Zm-5.782-.6c-1.116.3-2.435-.1-2.74-1.3-.405-1.2.406-2.4 1.32-3.1.913-.7 2.333-.6 2.84.5.203.5.101 1.1-.101 1.6-.102.3-.406.6 0 .8.608-.7 1.116-1.4 1.724-2.1-.71-.4-1.014-1.1-1.522-1.7-.608-.7-1.318-1.4-2.333-1.5-1.927-.3-3.652 1.7-3.855 3.4-.101.9.203 1.8.812 2.6.507.6 1.217 1.1 1.623 1.8.203.1 1.826-.7 2.13-.8.203 0 .102-.1.102-.2 0 0-.508.2 0 0Zm25.87 23.6c-.71-.5-2.638-3-3.044-3.5l-.203-.3-.203.1c-.101.1.102.4 0 .6-.507.8-3.754 3.2-3.956 3.4-.406.2-.812-.1-1.015.2.507.6 1.826 2.3 2.029 2.3.304 0 .101-.5.101-.6.102-.2 1.725-1.6 2.334-2.1.203-.2.406.3.608.5.203.3.305.7.203 1-.101.2-.507.6-.203.8.406-.5 1.522-1.8 1.725-2 .203-.2-.406 0-.304-.1-.203.1-.508.2-.71 0-.102 0-.71-.7-.61-.8.305-.2.61-.6 1.015-.7.61-.1 1.015 1 1.116 1.4.102.4.102.8-.101 1.1-.102.3-.304.5 0 .6l1.42-1.9c0 .1-.101.1-.203 0 .102.1-.101 0 0 0Zm-9.334-8.9c-.71 0-1.42.3-2.029.8-1.42 1.2-1.623 3.3-.507 4.8 1.319 1.7 3.449 1.9 5.174.7 1.42-1.2 1.623-3.3.507-4.8-.812-1-2.03-1.5-3.145-1.5Zm1.217 1.4c.913-.1 1.522.8 1.116 1.8-.406 1-1.42 2-2.434 2.4-1.218.5-2.03-.5-1.522-1.7.406-1 1.42-2 2.435-2.4.101 0 .203-.1.405-.1Zm-2.84-4.6c.304 0 .608.4.811 0l-1.42-1.7c-.406.2 0 .4-.101.6-.203.3-1.725.5-2.13.6.1-.4.608-1.7.81-1.8.407-.3.61.3.812-.1l-1.826-2.1c-.203-.2-.406-.7-.608-.4 0 0 0 1-.102 1.1-.101.2-.608 2.4-1.217 2.9-.305.3-1.522 1.3-1.826 1.4-.305.1-.508-.4-.812 0l1.623 1.9c.102.1.406.6.508.6.304.1 0-.6.101-.7.101-.3 1.623-1.8 2.333-1.9.913-.2 2.03-.5 3.044-.4.203 0-.203 0 0 0Zm24.55 6.7c.102.4.203.9.102 1.3-.102.6-.609 1.9-1.42 1.5-.812-.4-1.42-1.1-2.13-1.7.507-.6 1.014-1.1 1.927-.8.203.1.406 0 .203-.2-.305-.2-2.03-1.3-2.13-1.2-.204.2.304.6.1 1-.1.3-.405.5-.608.8-.507-.4-1.217-.8-.71-1.5.406-.4.811-.8 1.42-.9.406-.1 1.218.3 1.319-.1-.71-.3-1.42-.7-2.13-1 .101.5-2.232 2.9-2.74 3.5-.101.1-.405.4-.405.5 0 .3.405.1.405.1.305-.1 4.464 3.3 4.566 3.6.101.2-.102.4 0 .5 0 0 .101.1.203.1.304-.3 2.942-3.9 3.55-4l-1.521-2.4c-.406.2-.102.7 0 .9Zm-4.058 4.4c-1.318-.9-3.652.8-4.057 1-.71.3-1.218-.4-.812-1 .304-.5.913-.8 1.522-.8.203 0 .913.1.913 0 .101-.1.101-.1 0-.2-.609-.4-1.116-.8-1.725-1.1-.101.7-.913 1.1-1.319 1.6-.507.6-1.014 1.3-1.014 2s.406 1.4 1.116 1.7c.71.4 1.521.1 2.232-.3.405-.3.811-.6 1.217-.8.609-.3 1.522 0 1.319.8-.203.7-.913 1.3-1.623 1.5-.406.1-.812.1-1.218-.1-.304-.1-.608-.5-.811-.1l2.333 1.6c.102-.5.304-.7.71-1 .507-.4.913-.9 1.319-1.4.812-.9 1.116-2.5-.102-3.4ZM95.87 10.3c0 .1 0 .1 0 0l-.913 1-.812 1c-.203.2-.304.3 0 .5.507-.3 3.55 4.8 3.348 5.5-.507.2-4.565-3.3-4.667-3.5 0-.1.203-.7-.101-.6-.102 0-.508.6-.609.7l-.609.7c.203.3.305 0 .609 0 .203.1 1.217.9 1.522 1.1-.508 0-1.725.1-1.928.1-.608.1-.304-.4-.71-.6L89.478 18l-.913 1v.1c.203.2.102.1.406 0 .304-.1 4.362 3.2 4.464 3.4.203.3-.102.6.304.8l1.218-1.4c.101-.1.101-.1 0-.1-.305-.2-.305.1-.71.1-.305-.1-2.943-2.2-3.856-3l5.377-.2c.203 0 .71.6.71.8-.101.2-.304.4 0 .5.305-.4.609-.7.913-1.1l.102-.2c.101 0 .101-.1.101-.2l.102-.1c.304-.3 1.217-1.3 1.116-1.4-.305-.3-.406.3-.812 0-.203-.2-.812-1.2-.913-1.4-.203-.3.406-.6.609-.7.507-.3 2.13-.8 2.333.2 0 .2-.203.4-.101.5 0 0 .101.2.202.1l2.131-2.6-.203-.2c-.507.5-5.58-1.5-5.884-1.8-.102-.2-.102-.8-.304-.8Zm-.203 2.6c.811.3 1.521.6 2.333 1l-.609.3c-.203.1-.405.3-.608.5l-1.116-1.8Zm-6.696 7.7c-1.116-.1-2.232.4-3.043 1.3-1.218 1.5-1.116 3.7.405 4.9 1.522 1.2 3.754.9 4.971-.5 1.218-1.5 1.116-3.7-.405-4.9-.508-.4-1.218-.7-1.928-.8Zm-1.42 1.6c.608 0 1.319.4 1.724.7.812.5 2.232 1.7 1.522 2.7 0-.1.102-.1-.101.1-.812.8-2.232.1-2.942-.5-.71-.5-2.03-1.7-1.218-2.7.305-.2.609-.3 1.015-.3Zm-3.145 4.3c-1.218-.1-2.435.5-3.348 1.6-.609.8-1.319 1.5-1.928 2.3.203.3.508-.1.812.1.304.2 4.16 3.3 4.16 3.5.1.3-.203.4.1.6.102.1 2.943-3.4 3.247-4a2.94 2.94 0 0 0-.811-3.2c.101.1.203.1 0 0-.812-.6-1.522-.9-2.232-.9Zm-1.116 1.6h.304c1.42.4 3.45 2.1 2.13 3.6l-.405.4c-.203.2-4.261-3-4.058-3.2.406-.5 1.319-.9 2.029-.8Z"/></g><defs><clipPath id="a"><path fill="#fff" d="M0 0h140v70H0z"/></clipPath></defs></svg>
